public/assets/images/icons/green/group3.svg

<svg xmlns="http://www.w3.org/2000/svg" viewBox="0 0 54 54"><path d="M21.33 27.49a7.83 7.83 0 0 1-2.16 5.39h15.66A7.87 7.87 0 0 1 36.06 21a6.06 6.06 0 0 0-4.68-2.25H22.6A6 6 0 0 0 17.93 21a7.87 7.87 0 0 1 3.4 6.49zM27 15.74a6.37 6.37 0 1 0-6.33-6.38A6.34 6.34 0 0 0 27 15.74z" fill="#00962d"/><path d="M13.49 33.86a6.37 6.37 0 1 0-6.33-6.37 6.35 6.35 0 0 0 6.33 6.37zm4.38 3.02H9.09A6.13 6.13 0 0 0 3 43v8h21v-8a6.15 6.15 0 0 0-6.13-6.12zm16.31-9.39a6.34 6.34 0 1 0 6.33-6.37 6.35 6.35 0 0 0-6.33 6.37zm10.71 9.39h-8.78A6.13 6.13 0 0 0 30 43v8h21v-8a6.15 6.15 0 0 0-6.11-6.12z" fill="#00962d"/></svg>

<svg xmlns="http://www.w3.org/2000/svg" viewBox="0 0 54 54"><defs><style>.a{fill:#00962d;}</style></defs><path class="a" d="M21.33,27.49a7.83,7.83,0,0,1-2.16,5.39H34.83A7.87,7.87,0,0,1,36.06,21a6.06,6.06,0,0,0-4.68-2.25H22.6A6,6,0,0,0,17.93,21,7.87,7.87,0,0,1,21.33,27.49Z"/><path class="a" d="M27,15.74a6.37,6.37,0,1,0-6.33-6.38A6.34,6.34,0,0,0,27,15.74Z"/><path class="a" d="M13.49,33.86a6.37,6.37,0,1,0-6.33-6.37A6.35,6.35,0,0,0,13.49,33.86Z"/><path class="a" d="M17.87,36.88H9.09A6.13,6.13,0,0,0,3,43v8H24V43A6.15,6.15,0,0,0,17.87,36.88Z"/><path class="a" d="M34.18,27.49a6.34,6.34,0,1,0,6.33-6.37A6.35,6.35,0,0,0,34.18,27.49Z"/><path class="a" d="M44.89,36.88H36.11A6.13,6.13,0,0,0,30,43v8H51V43A6.15,6.15,0,0,0,44.89,36.88Z"/></svg>
